X: 4369
T: Bombay Dog
R: reel
M: 4/4
K: Edorian
|:E2GB g2fe|defd B3 B|defd BcdB|ABdA F2 GF|
E2GB g2fe|defd B3 B|defd BcdB|AGFG E4:|
|:gzaz b3(b|b)agb agfe|f~d3 a3a|agfb agfd|
azgz f3g|abag fgag|fgag fed=c|Bzdz e4:|

